img/cart.svg

<svg width="25" height="24" viewBox="0 0 25 24" fill="none" xmlns="http://www.w3.org/2000/svg">
<g clip-path="url(#clip0_1_375)">
<path d="M8.23936 23.1883C9.1155 23.1883 9.82576 22.4719 9.82576 21.5883C9.82576 20.7046 9.1155 19.9883 8.23936 19.9883C7.36321 19.9883 6.65295 20.7046 6.65295 21.5883C6.65295 22.4719 7.36321 23.1883 8.23936 23.1883Z" fill="#737373"/>
<path d="M19.3442 23.1883C20.2204 23.1883 20.9306 22.4719 20.9306 21.5883C20.9306 20.7046 20.2204 19.9883 19.3442 19.9883C18.4681 19.9883 17.7578 20.7046 17.7578 21.5883C17.7578 22.4719 18.4681 23.1883 19.3442 23.1883Z" fill="#737373"/>
<path d="M22.517 4.78825H4.9238L4.27338 1.42825C4.2363 1.24483 4.13661 1.08033 3.99168 0.963391C3.84675 0.846451 3.66574 0.784474 3.48018 0.788249H0.307373V2.38825H2.82975L5.85978 17.7483C5.89686 17.9317 5.99655 18.0962 6.14148 18.2131C6.28641 18.33 6.46742 18.392 6.65298 18.3883H20.9306V16.7882H7.30341L6.65298 13.5882H20.9306C21.114 13.5928 21.2932 13.5331 21.4378 13.4193C21.5824 13.3055 21.6835 13.1447 21.7238 12.9642L23.3102 5.76425C23.3368 5.64555 23.3362 5.5223 23.3084 5.40387C23.2806 5.28545 23.2264 5.17498 23.1499 5.08087C23.0735 4.98675 22.9767 4.91148 22.867 4.86077C22.7573 4.81006 22.6376 4.78526 22.517 4.78825ZM20.296 11.9882H6.35157L5.24108 6.38825H21.5255L20.296 11.9882Z" fill="#737373"/>
</g>
<defs>
<clipPath id="clip0_1_375">
<rect width="23.796" height="22.4002" fill="white" transform="translate(0.307373 0.788086)"/>
</clipPath>
</defs>
</svg>

<svg width="25" height="24" fill="none" xmlns="http://www.w3.org/2000/svg"><g clip-path="url(#a)" fill="#737373"><path d="M8.24 23.188c.876 0 1.586-.716 1.586-1.6 0-.883-.71-1.6-1.587-1.6-.876 0-1.586.717-1.586 1.6 0 .884.71 1.6 1.586 1.6ZM19.344 23.188c.876 0 1.587-.716 1.587-1.6 0-.883-.71-1.6-1.587-1.6-.876 0-1.586.717-1.586 1.6 0 .884.71 1.6 1.586 1.6ZM22.517 4.788H4.924l-.65-3.36a.801.801 0 0 0-.282-.465.789.789 0 0 0-.512-.175H.307v1.6H2.83l3.03 15.36a.79.79 0 0 0 .793.64h14.278v-1.6H7.303l-.65-3.2h14.278a.788.788 0 0 0 .507-.169.801.801 0 0 0 .286-.455l1.586-7.2a.806.806 0 0 0-.443-.903.787.787 0 0 0-.35-.073Zm-2.221 7.2H6.352l-1.11-5.6h16.284l-1.23 5.6Z"/></g><defs><clipPath id="a"><path fill="#fff" transform="translate(.307 .788)" d="M0 0h23.796v22.4H0z"/></clipPath></defs></svg>
